!!! OTL: Berkowitz169
!!! Chapter: 1
!!! Section: I
!!! Page: 38
!!! Mode: 
!!! Encoder: DJB
**kern
*staff1
*I"Piano
=1-
*clefG2
*k[f#c#]
*D:
*M6/8
8d/L
8f#/
8a/J
8dd\L
8cc#\
8dd\J
=2
4.b\
8b\L
8cc#\
8b\J
=3
8a/L
8f#/
8d/J
8.d/L
16c#/K
8d/J
=4
8f#/L
8g/
8f#/J
4e/
8r
=5
8d/L
8f#/
8a/J
8g/L
8e/
8c#/J
=6
8d/L
8f#/
8a/J
8dd\L
8b\
8g\J
=7
8.f#/L
16g/K
8a/J
8f#/L
8e/
8d/J
=8
!!linebreak:original
8g/L
8e/
8c#/J
4.d/
==
*-
